X: 109102
T: I'M OWRE YOUNG
Q:"Reel."
R: Reel.
%R:reel
B: James Kerr "Merry Melodies" v.1 p.9 s.1 #2
Z: 2017 John Chambers <jc:trillian.mit.edu>
M: C
L: 1/8
K: G	% or E dorian
|: ue |\
d2(GA) BABe | dGGA BAAe |\
dBGA BABd | efge dBB :|\
d |\
g2ge f2fd | e2(ec) dBBd |
g2ge f2fd | efge dBBd |\
gage fgfd | efge dcBA |\
GFGA BABd | efge dBB |]%X: 109104

%%sep 1 1 500
%%sep 1 1 500

